utils/icons-generator/ic_input_own_platform.svg

<?xml version="1.0" encoding="UTF-8"?>
<svg xmlns="http://www.w3.org/2000/svg" xmlns:xlink="http://www.w3.org/1999/xlink" width="1000pt" height="1000pt" viewBox="0 0 1000 1000" version="1.1">
<g id="surface1">
<path style=" stroke:none;fill-rule:nonzero;fill:rgb(0%,0%,0%);fill-opacity:1;" d="M 208.332031 125 L 791.667969 125 C 837.691406 125 875 162.308594 875 208.332031 L 875 791.667969 C 875 837.691406 837.691406 875 791.667969 875 L 208.332031 875 C 162.308594 875 125 837.691406 125 791.667969 L 125 208.332031 C 125 162.5 162.5 125 208.332031 125 Z M 791.667969 458.332031 L 791.667969 208.332031 L 208.332031 208.332031 L 208.332031 458.332031 Z M 791.667969 541.667969 L 208.332031 541.667969 L 208.332031 791.667969 L 791.667969 791.667969 Z M 333.332031 375 C 310.320312 375 291.667969 356.34375 291.667969 333.332031 C 291.667969 310.320312 310.320312 291.667969 333.332031 291.667969 C 356.34375 291.667969 375 310.320312 375 333.332031 C 375 356.34375 356.34375 375 333.332031 375 Z M 333.332031 708.332031 C 310.320312 708.332031 291.667969 689.679688 291.667969 666.667969 C 291.667969 643.65625 310.320312 625 333.332031 625 C 356.34375 625 375 643.65625 375 666.667969 C 375 689.679688 356.34375 708.332031 333.332031 708.332031 Z M 333.332031 708.332031 "/>
</g>
</svg>

<?xml version="1.0" encoding="UTF-8" standalone="no"?>
<svg
   xmlns:dc="http://purl.org/dc/elements/1.1/"
   xmlns:cc="http://creativecommons.org/ns#"
   xmlns:rdf="http://www.w3.org/1999/02/22-rdf-syntax-ns#"
   xmlns:svg="http://www.w3.org/2000/svg"
   xmlns="http://www.w3.org/2000/svg"
   xmlns:sodipodi="http://sodipodi.sourceforge.net/DTD/sodipodi-0.dtd"
   xmlns:inkscape="http://www.inkscape.org/namespaces/inkscape"
   width="1000pt"
   height="1000pt"
   viewBox="0 0 1000 1000"
   version="1.1"
   id="svg332"
   sodipodi:docname="ic_input_own_platform.svg"
   inkscape:version="0.92.4 (5da689c313, 2019-01-14)">
  <metadata
     id="metadata338">
    <rdf:RDF>
      <cc:Work
         rdf:about="">
        <dc:format>image/svg+xml</dc:format>
        <dc:type
           rdf:resource="http://purl.org/dc/dcmitype/StillImage" />
      </cc:Work>
    </rdf:RDF>
  </metadata>
  <defs
     id="defs336" />
  <sodipodi:namedview
     pagecolor="#ffffff"
     bordercolor="#666666"
     borderopacity="1"
     objecttolerance="10"
     gridtolerance="10"
     guidetolerance="10"
     inkscape:pageopacity="0"
     inkscape:pageshadow="2"
     inkscape:window-width="2560"
     inkscape:window-height="1346"
     id="namedview334"
     showgrid="false"
     inkscape:zoom="0.177"
     inkscape:cx="666.66667"
     inkscape:cy="666.66667"
     inkscape:window-x="-11"
     inkscape:window-y="-11"
     inkscape:window-maximized="1"
     inkscape:current-layer="svg332" />
  <g
     id="surface1"
     transform="matrix(1.33,0,0,1.33,-164.99998,-164.99998)">
    <path
       style="fill:#000000;fill-opacity:1;fill-rule:nonzero;stroke:none"
       d="M 208.33203,125 H 791.66797 C 837.69141,125 875,162.30859 875,208.33203 V 791.66797 C 875,837.69141 837.69141,875 791.66797,875 H 208.33203 C 162.30859,875 125,837.69141 125,791.66797 V 208.33203 C 125,162.5 162.5,125 208.33203,125 Z m 583.33594,333.33203 v -250 H 208.33203 v 250 z m 0,83.33594 H 208.33203 v 250 H 791.66797 Z M 333.33203,375 c -23.01172,0 -41.66406,-18.65625 -41.66406,-41.66797 0,-23.01172 18.65234,-41.66406 41.66406,-41.66406 23.01172,0 41.66797,18.65234 41.66797,41.66406 C 375,356.34375 356.34375,375 333.33203,375 Z m 0,333.33203 c -23.01172,0 -41.66406,-18.65234 -41.66406,-41.66406 C 291.66797,643.65625 310.32031,625 333.33203,625 356.34375,625 375,643.65625 375,666.66797 c 0,23.01172 -18.65625,41.66406 -41.66797,41.66406 z m 0,0"
       id="path329"
       inkscape:connector-curvature="0" />
  </g>
</svg>
